X:1
T:Title
%%score { 1 | ( 2 3 ) }
L:1/8
M:6/4
K:Db
V:1 treble nm="Grand Piano"
V:2 bass 
V:3 bass 
V:1
 z6[Q:1/4=114] F2 D2 E2 | [A,F]6 F2 A2 G2 | [A,F]6 D2 C2 D2 | [G,E]6 G2 G2 G2 |[M:3/4] [A,F]6 | %5
 F2 D2 E2 |[M:6/4] [A,F]6 D2 F2 F2 | .[B,G]6 D2 D2 E2 | [A,F]2[K:bass] A,2 [G,B,]2- [G,B,]2 C4 | %9
[M:3/4] [F,D]6 |] %10
V:2
 z6 A,2 F,2 G,2 | D,,2 G,,2 D,2 D2 C2 B,2 | D,,2 A,,2 D,2 F,2 E,2 F,2 | A,,2 .A,,4 B,2 =A,2 A,2 | %4
[M:3/4] D,,6 | A,2 F,2 G,2 |[M:6/4] D,,2 A,,2 D,2 F,2 _C2 C2 | G,,2 D,2 G,2 B,2 =A,2 A,2 | %8
 z2 .F,4 z2 E,4 |[M:3/4] D,,6 |] %10
V:3
 x12 | x12 | x12 | x12 |[M:3/4] x6 | x6 |[M:6/4] x12 | x12 | A,,4 A,,2- A,,6 |[M:3/4] x6 |] %10

